packages/tokens/icons/tip/size16Px.svg

<svg viewBox="0 0 16 16" fill="none" xmlns="http://www.w3.org/2000/svg" width="1em" height="1em"><circle cx="8" cy="8" r="6.5" stroke="currentColor" stroke-linecap="round"/><path d="M7.33337 12C7.33337 12.3682 7.63185 12.6667 8.00004 12.6667C8.36823 12.6667 8.66671 12.3682 8.66671 12" stroke="currentColor" stroke-linecap="round" stroke-linejoin="round"/><path d="M6.91618 9.85236L6.48873 10.1118L6.91618 9.85236C6.71362 9.51858 6.43548 9.26618 6.18094 9.06527C5.46474 8.49997 5 7.60804 5 6.6C5 4.87455 6.35633 3.5 8 3.5C9.64367 3.5 11 4.87455 11 6.6C11 7.60804 10.5353 8.49997 9.81906 9.06527C9.56452 9.26618 9.28638 9.51858 9.08382 9.85236L9.04918 9.90945C8.82666 10.2761 8.42889 10.5 8 10.5C7.57111 10.5 7.17334 10.2761 6.95082 9.90945L6.91618 9.85236Z" stroke="currentColor"/></svg>

<svg xmlns="http://www.w3.org/2000/svg" fill="none" viewBox="0 0 16 16" width="1em" height="1em"><circle cx="8" cy="8" r="6.5" stroke="currentColor" stroke-linecap="round"/><path stroke="currentColor" stroke-linecap="round" stroke-linejoin="round" d="M7.333 12a.667.667 0 1 0 1.334 0"/><path stroke="currentColor" d="m6.916 9.852-.427.26.427-.26c-.202-.333-.48-.586-.735-.787A3.13 3.13 0 0 1 5 6.6c0-1.725 1.356-3.1 3-3.1s3 1.375 3 3.1a3.13 3.13 0 0 1-1.18 2.465c-.255.201-.534.454-.736.787l-.035.057a1.227 1.227 0 0 1-2.098 0l-.035-.057Z"/></svg>
